X: 25090
T: Maids Of Mitchelstown, The
R: reel
M: 4/4
K: Ddorian
D2 AG EG G2|A2 GA cAGE|D2 AG EG G2|AcGE EDCE|
D2 AG EG G2|A2 GA cAGE|D2 AG EG G2|AcGE EDD2||
(3EFG AB c2 AG|Acde f2 ed|cAGE F3G|AcGE EDD2|
(3EFG AB c2 AG|Acde f2 ed|cAGE F3G|AcBd cAGE||

